X: 13834
T: Four Shoves, The
R: polka
M: 2/4
K: Dmajor
EB B/A/B|EB A2|EB B/A/B/c/|d2A2:|
|:dA/d/ ef/e/|df fe|dA/d/ ef/e/|d3 A|
dA/d/ ef/e/|df fe|fg/f/ ef/e/|d3 A:|
|:dA/d/ fe|dB Bd/B/|Ad fe|df af|
dA/d/ fe|dB Bd/B/|Ad fe|d4:|
fa d'2|c'b b2|g>f gb|ba a2|
fa d'2|c'b b2|g>f gb|ag fe|
|:dA/d/ fe|dB Bd/B/|Ad fe|df af|
dA/d/ fe|dB Bd/B/|Ad fe|d4:|

